relation-one-to-many.svg

<svg fill="currentColor" viewBox="0 0 24 24"><path d="M22 13v6h-1l-2-2h-8V9H7v2H5V9H2V7h3V5h2v2h6v8h6l2-2Z"/></svg>

<svg  viewBox="0 0 24 24" fill="currentColor"><path  d="M22 13V19H21L19 17H11V9H7V11H5V9H2V7H5V5H7V7H13V15H19L21 13Z"/></svg>
